X: 1
T: Hag's Purse, The
M: 6/8
L: 1/8
R: jig
K: Dmix
|:B|A2D FED|A2d cAF|G2E EDE|c2d cAG|
AAD FED|A2d cAF|GFG cAG|EDD D2:|
|:A|d2e fed|ged cAF|G2E EDE|c2d cAG|
Add fed|ged cAF|GFG cAG|EDD D2:|
